dist/img/logo02.svg

<svg width="32" height="32" viewBox="0 0 32 32" fill="none" xmlns="http://www.w3.org/2000/svg">
<rect width="32" height="32" rx="4" fill="#FFCA05"/>
<path fill-rule="evenodd" clip-rule="evenodd" d="M10.0702 19.5519L23.7888 19.5639C22.5301 18.7232 18.7405 18.3015 16.9291 18.3016C16.4211 18.3017 15.7432 18.3364 15.0056 18.4051C15.0841 17.8556 15.0907 12.3487 15.0128 11.9417C13.7979 12.1542 14.1096 13.4761 14.1092 14.7106C14.1088 15.9702 14.129 17.2452 14.1061 18.503C12.4896 18.7044 10.8018 19.0558 10.0702 19.5519ZM17.3245 13.5702H18.523C18.4794 12.4935 18.4073 11.4585 19.5384 11.333L19.5392 17.9025L18.5418 17.81C18.5121 16.7126 18.5316 15.5849 18.5359 14.4784H17.3244L17.324 17.7449L16.0953 17.7608C16.0946 16.1002 16.0948 14.4396 16.0955 12.779C16.0961 11.4102 15.6826 9.00885 17.3249 9.10381L17.3245 13.5702ZM12.5417 18.1583C13.5471 18.1812 13.3368 17.897 13.3361 16.9738L13.3355 13.4912C12.9555 13.4448 12.6631 13.7055 12.5775 14.0164C12.5019 14.2904 12.5481 17.6868 12.5417 18.1583ZM21.3176 18.1623L21.3141 13.4813C20.263 13.4394 20.5226 14.9039 20.5226 15.7852C20.5225 18.2063 20.3016 18.1591 21.3176 18.1623Z" fill="black"/>
<path fill-rule="evenodd" clip-rule="evenodd" d="M10.0286 19.5519L23.7471 19.5639C22.4885 18.7232 18.6989 18.3015 16.8875 18.3016C16.3795 18.3017 15.7015 18.3364 14.9639 18.4051C15.0424 17.8556 15.0491 12.3487 14.9712 11.9417C13.7563 12.1542 14.068 13.4761 14.0676 14.7106C14.0672 15.9702 14.0874 17.2452 14.0645 18.503C12.448 18.7044 10.7602 19.0558 10.0286 19.5519ZM17.2829 13.5702H18.4813C18.4378 12.4935 18.3657 11.4585 19.4967 11.333L19.4975 17.9025L18.5001 17.81C18.4704 16.7126 18.4899 15.5849 18.4942 14.4784H17.2827L17.2824 17.7449L16.0537 17.7608C16.053 16.1002 16.0531 14.4396 16.0539 12.779C16.0545 11.4102 15.641 9.00885 17.2833 9.10381L17.2829 13.5702ZM12.5001 18.1583C13.5055 18.1812 13.2952 17.897 13.2945 16.9738L13.2939 13.4912C12.9138 13.4448 12.6215 13.7055 12.5358 14.0164C12.4603 14.2904 12.5064 17.6868 12.5001 18.1583ZM21.276 18.1623L21.2725 13.4813C20.2214 13.4394 20.481 14.9039 20.481 15.7852C20.4809 18.2063 20.26 18.1591 21.276 18.1623Z" fill="black" stroke="black" stroke-width="0.216"/>
<path fill-rule="evenodd" clip-rule="evenodd" d="M8.46116 22.6738V22.8339H7.1405V20.6993H7.53604V22.6738H8.46116ZM9.09587 22.8339H8.7036V20.6993H9.09587V22.8339ZM11.3809 21.8369V22.5566C11.255 22.6661 11.1248 22.7484 10.9897 22.8034C10.8546 22.8585 10.7146 22.8862 10.5696 22.8862C10.2515 22.8862 9.99375 22.7833 9.79653 22.5773C9.59984 22.3714 9.50122 22.1017 9.50122 21.7677C9.50122 21.4495 9.60039 21.1842 9.79926 20.9718C9.99757 20.7598 10.2438 20.6536 10.5375 20.6536C10.7167 20.6536 10.8714 20.6901 11.0033 20.7636C11.1346 20.8372 11.2436 20.9472 11.3296 21.0938L11.2022 21.1831C11.1357 21.0535 11.054 20.9559 10.957 20.8911C10.8595 20.8263 10.7467 20.7941 10.6192 20.7941C10.4051 20.7941 10.2356 20.8824 10.1103 21.0589C9.98557 21.236 9.92293 21.4768 9.92293 21.7824C9.92293 22.0761 9.98286 22.3044 10.1027 22.4678C10.222 22.6313 10.3893 22.713 10.6029 22.713C10.6862 22.713 10.7636 22.7005 10.8355 22.6749C10.9069 22.6492 10.969 22.6116 11.0213 22.5632V21.8369H11.3809ZM12.215 21.8271V22.8339H11.8194V20.6993H12.215V21.6702H13.1074V20.6993H13.4997V22.8339H13.1074V21.8271H12.215ZM14.3534 22.8339V20.8595H13.7944V20.6993H15.3047V20.8595H14.7457V22.8339H14.3534ZM15.9982 22.8339H15.6059V20.6993H15.9982V22.8339ZM16.5507 22.8339V20.6993H16.913L18.0184 22.1731V20.6993H18.208V22.8339H18.0184L16.7403 21.1336V22.8339H16.5507ZM20.4761 21.8369V22.5566C20.3503 22.6661 20.22 22.7484 20.0849 22.8034C19.9498 22.8585 19.8098 22.8862 19.6648 22.8862C19.3467 22.8862 19.089 22.7833 18.8918 22.5773C18.6951 22.3714 18.5965 22.1017 18.5965 21.7677C18.5965 21.4495 18.6956 21.1842 18.8945 20.9718C19.0928 20.7598 19.3391 20.6536 19.6327 20.6536C19.8119 20.6536 19.9667 20.6901 20.0985 20.7636C20.2298 20.8372 20.3388 20.9472 20.4249 21.0938L20.2974 21.1831C20.2309 21.0535 20.1492 20.9559 20.0522 20.8911C19.9547 20.8263 19.8419 20.7941 19.7144 20.7941C19.5003 20.7941 19.3309 20.8824 19.2056 21.0589C19.0808 21.236 19.0182 21.4768 19.0182 21.7824C19.0182 22.0761 19.0781 22.3044 19.1979 22.4678C19.3173 22.6313 19.4845 22.713 19.6981 22.713C19.7814 22.713 19.8588 22.7005 19.9307 22.6749C20.0021 22.6492 20.0642 22.6116 20.1165 22.5632V21.8369H20.4761ZM21.3102 21.8271V22.8339H20.9147V20.6993H21.3102V21.6702H22.2026V20.6993H22.5949V22.8339H22.2026V21.8271H21.3102ZM23.3184 22.1311H23.9395L23.6284 21.3526L23.3184 22.1311ZM22.8537 22.8339L23.7303 20.6568L24.6418 22.8339H24.2206L23.9984 22.2651H23.2629L23.0428 22.8339H22.8537ZM24.8401 20.6993H25.2356V21.9884C25.2356 22.2395 25.2711 22.4144 25.3413 22.513C25.4116 22.6116 25.5304 22.6607 25.6977 22.6607C25.8644 22.6607 25.9831 22.6116 26.0529 22.513C26.1226 22.4144 26.1575 22.2395 26.1575 21.9884V20.6993H26.3471V22.0603C26.3471 22.3354 26.2844 22.5419 26.1597 22.6797C26.0344 22.8176 25.8464 22.8862 25.5952 22.8862C25.4835 22.8862 25.3762 22.8661 25.2738 22.8258C25.1708 22.7855 25.0864 22.7299 25.0205 22.6596C24.9556 22.5915 24.9093 22.5136 24.8815 22.4259C24.8537 22.3382 24.8401 22.2166 24.8401 22.0603V20.6993ZM26.9175 22.4286C26.9644 22.5179 27.0243 22.5877 27.0973 22.6378C27.1698 22.6879 27.2482 22.713 27.3327 22.713C27.4465 22.713 27.5391 22.677 27.6105 22.6051C27.6819 22.5332 27.7173 22.4411 27.7173 22.3283C27.7173 22.148 27.5582 21.9927 27.2395 21.862L27.2351 21.8603C27.0635 21.7901 26.942 21.7105 26.8707 21.6223C26.7987 21.534 26.7628 21.4223 26.7628 21.2872C26.7628 21.102 26.8243 20.95 26.948 20.8317C27.0711 20.713 27.2308 20.6536 27.4269 20.6536C27.5735 20.6536 27.702 20.6868 27.8121 20.7527C27.9222 20.8187 28.0039 20.9124 28.0573 21.0333L27.9167 21.1276C27.8819 21.0279 27.829 20.951 27.7587 20.8977C27.6884 20.8437 27.6051 20.817 27.5081 20.817C27.4046 20.817 27.3201 20.8502 27.2542 20.9167C27.1883 20.9832 27.1551 21.0698 27.1551 21.1777C27.1551 21.2627 27.1823 21.3346 27.2368 21.3945C27.2907 21.4539 27.3926 21.5155 27.5419 21.5792C27.7767 21.6806 27.932 21.777 28.0066 21.8696C28.0818 21.9622 28.1194 22.081 28.1194 22.2254C28.1194 22.4171 28.0529 22.5751 27.9205 22.6994C27.7881 22.8241 27.6203 22.8862 27.4171 22.8862C27.27 22.8862 27.1436 22.8579 27.0374 22.8018C26.9306 22.7457 26.838 22.6585 26.7595 22.5403L26.9175 22.4286Z" fill="black"/>
<path fill-rule="evenodd" clip-rule="evenodd" d="M4.23351 22.844V21.519H3.8584V21.4115H4.87188V21.519H4.49677V22.844H4.23351ZM5.23825 22.844H5.02985V21.3105H5.23825V22.289H5.59363V21.9051H5.80203V22.844H5.59363V22.3701H5.23825V22.844ZM6.09601 22.074C6.09601 22.0038 6.10697 21.9577 6.12892 21.938C6.15303 21.916 6.1991 21.9051 6.27151 21.9051H6.71901V21.9862H6.39874C6.36144 21.9862 6.33511 21.9906 6.32416 22.0016C6.311 22.0125 6.30441 22.0323 6.30441 22.0608V22.2977H6.64444V22.3899H6.30441V22.6882C6.30441 22.7167 6.311 22.7365 6.32416 22.7475C6.33732 22.7584 6.36583 22.7628 6.41408 22.7628H6.72999V22.844H6.23858C6.18594 22.844 6.14866 22.833 6.1267 22.8111C6.10697 22.7891 6.09601 22.7431 6.09601 22.6751V22.074Z" fill="black"/>
</svg>

<svg fill="none" xmlns="http://www.w3.org/2000/svg" viewBox="0 0 32 32"><rect width="32" height="32" rx="4" fill="#FFCA05"/><path fill-rule="evenodd" clip-rule="evenodd" d="M10.07 19.552l13.719.012c-1.259-.84-5.049-1.262-6.86-1.262-.508 0-1.186.034-1.923.103.078-.55.085-6.056.007-6.463-1.215.212-.903 1.534-.904 2.769 0 1.26.02 2.534-.003 3.792-1.616.201-3.304.553-4.036 1.049zm7.255-5.982h1.198c-.044-1.077-.116-2.111 1.015-2.237l.001 6.57-.997-.093c-.03-1.097-.01-2.225-.006-3.332h-1.212v3.267l-1.229.016v-4.982c.001-1.369-.412-3.77 1.23-3.675v4.466zm-4.783 4.588c1.005.023.795-.261.794-1.184V13.49c-.38-.046-.673.215-.758.525-.076.274-.03 3.67-.036 4.142zm8.776.004l-.004-4.68c-1.051-.043-.791 1.422-.791 2.303 0 2.421-.221 2.374.795 2.377z" fill="#000"/><path fill-rule="evenodd" clip-rule="evenodd" d="M10.029 19.552l13.718.012c-1.259-.84-5.048-1.262-6.86-1.262-.508 0-1.186.034-1.923.103.078-.55.085-6.056.007-6.463-1.215.212-.903 1.534-.903 2.769 0 1.26.02 2.534-.003 3.792-1.617.201-3.305.553-4.036 1.049zm7.254-5.982h1.198c-.043-1.077-.115-2.111 1.016-2.237v6.57l-.997-.093c-.03-1.097-.01-2.225-.006-3.332h-1.211v3.267l-1.23.016v-4.982c.002-1.369-.412-3.77 1.23-3.675v4.466zM12.5 18.158c1.005.023.795-.261.794-1.184V13.49c-.38-.046-.673.215-.758.525-.076.274-.03 3.67-.036 4.142zm8.776.004l-.003-4.68c-1.052-.043-.792 1.422-.792 2.303 0 2.421-.221 2.374.795 2.377z" fill="#000" stroke="#000" stroke-width=".216"/><path fill-rule="evenodd" clip-rule="evenodd" d="M8.461 22.674v.16h-1.32v-2.135h.395v1.975h.925zm.635.16h-.392v-2.135h.392v2.135zm2.285-.997v.72c-.126.11-.256.191-.391.246a1.102 1.102 0 01-.42.083c-.319 0-.576-.103-.773-.309-.197-.206-.296-.475-.296-.81 0-.317.1-.583.298-.795a.97.97 0 01.739-.318.94.94 0 01.465.11.87.87 0 01.327.33l-.128.09a.755.755 0 00-.245-.293.596.596 0 00-.338-.097.592.592 0 00-.509.265c-.124.177-.187.418-.187.723 0 .294.06.522.18.686a.584.584 0 00.5.245c.083 0 .16-.012.232-.038a.54.54 0 00.186-.112v-.726h.36zm.834-.01v1.007h-.396v-2.135h.396v.971h.892v-.97h.393v2.134h-.393v-1.007h-.892zm2.138 1.007V20.86h-.559v-.16h1.51v.16h-.558v1.974h-.393zm1.645 0h-.392v-2.135h.392v2.135zm.553 0v-2.135h.362l1.105 1.474V20.7h.19v2.135h-.19l-1.278-1.7v1.7h-.19zm3.925-.997v.72c-.126.11-.256.191-.391.246a1.102 1.102 0 01-.42.083c-.318 0-.576-.103-.773-.309-.197-.206-.296-.475-.296-.81 0-.317.1-.583.299-.795a.97.97 0 01.738-.318.94.94 0 01.466.11c.13.073.24.183.326.33l-.128.09a.755.755 0 00-.245-.293.596.596 0 00-.338-.097.592.592 0 00-.508.265c-.125.177-.188.418-.188.723 0 .294.06.522.18.686.12.163.287.245.5.245.083 0 .16-.012.233-.038a.54.54 0 00.185-.112v-.726h.36zm.834-.01v1.007h-.395v-2.135h.395v.971h.893v-.97h.392v2.134h-.392v-1.007h-.893zm2.008.304h.621l-.31-.778-.31.778zm-.464.703l.876-2.177.912 2.177h-.421l-.223-.569h-.735l-.22.569h-.19zm1.986-2.135h.396v1.29c0 .25.035.425.105.524.07.099.19.148.357.148.166 0 .285-.05.355-.148.07-.099.104-.274.104-.525V20.7h.19v1.361c0 .275-.063.482-.187.62-.126.138-.314.206-.565.206a.87.87 0 01-.321-.06.681.681 0 01-.254-.166.596.596 0 01-.139-.234 1.261 1.261 0 01-.04-.366V20.7zm2.078 1.73a.552.552 0 00.18.209c.072.05.15.075.235.075a.374.374 0 00.277-.108.376.376 0 00.107-.277c0-.18-.159-.335-.477-.466l-.005-.002c-.171-.07-.293-.15-.364-.238a.513.513 0 01-.108-.335.6.6 0 01.185-.455.661.661 0 01.479-.178c.146 0 .275.033.385.099.11.066.192.16.245.28l-.14.095a.476.476 0 00-.158-.23.399.399 0 00-.25-.081.342.342 0 00-.255.1.354.354 0 00-.099.26.31.31 0 00.082.218c.054.059.156.12.305.184.235.102.39.198.465.29a.547.547 0 01.112.356c0 .192-.066.35-.198.474a.705.705 0 01-.504.187.802.802 0 01-.38-.084.762.762 0 01-.277-.262l.157-.111zm-22.684.415v-1.325h-.376v-.107h1.014v.107h-.375v1.325h-.263zm1.004 0H5.03V21.31h.208v.979h.356v-.384h.208v.939h-.208v-.474h-.356v.474zm.858-.77c0-.07.011-.116.033-.136.024-.022.07-.033.143-.033h.447v.081h-.32c-.038 0-.064.005-.075.016-.013.01-.02.03-.02.059v.237h.34v.092h-.34v.298c0 .029.007.049.02.06.013.01.042.015.09.015h.316v.081h-.491c-.053 0-.09-.011-.112-.033-.02-.022-.031-.068-.031-.136v-.601z" fill="#000"/></svg>
